src/main/resources/react/src/img/MySettings/one.svg

<svg width="17" height="17" viewBox="0 0 17 17" fill="none" xmlns="http://www.w3.org/2000/svg">
<path d="M16.3318 12.7732C14.8037 11.4517 13.3896 9.58724 13.3896 4.93215C13.3896 2.23626 11.1963 0.0430107 8.5003 0.0430107C5.80396 0.0430107 3.61034 2.23626 3.61034 4.93215C3.61034 9.59147 2.19673 11.4541 0.66728 12.7745C0.243241 13.1438 0 13.6757 0 14.2338C0 14.541 0.249025 14.79 0.55619 14.79H5.83444C6.09192 16.0257 7.18917 16.9571 8.5 16.9571C9.81083 16.9571 10.9082 16.0258 11.1656 14.79H16.4438C16.751 14.79 17 14.541 17 14.2338C17 13.6712 16.7562 13.1385 16.3318 12.7732ZM8.5 15.8447C7.80736 15.8447 7.2155 15.405 6.98857 14.79H10.0114C9.7845 15.405 9.19264 15.8447 8.5 15.8447ZM1.33145 13.6776C1.35169 13.6557 1.37327 13.6347 1.39604 13.6149C3.72781 11.6018 4.72265 9.00509 4.72265 4.93215C4.72265 2.84962 6.41733 1.15539 8.50022 1.15539C10.5828 1.15539 12.2771 2.84962 12.2771 4.93215C12.2771 9.00139 13.2721 11.5981 15.6051 13.6155C15.6278 13.6351 15.6494 13.6558 15.6697 13.6776H1.33145Z" fill="#00C0FF"/>
</svg>

<svg width="17" height="17" fill="none" xmlns="http://www.w3.org/2000/svg"><path d="M16.332 12.773c-1.528-1.321-2.942-3.186-2.942-7.84A4.895 4.895 0 008.5.042a4.895 4.895 0 00-4.89 4.89c0 4.658-1.413 6.521-2.943 7.841-.424.37-.667.902-.667 1.46 0 .307.249.556.556.556h5.278A2.728 2.728 0 008.5 16.957c1.31 0 2.408-.931 2.666-2.167h5.278a.556.556 0 00.556-.556c0-.563-.244-1.095-.668-1.46zM8.5 15.845c-.693 0-1.285-.44-1.511-1.055h3.022A1.613 1.613 0 018.5 15.845zm-7.169-2.167a.827.827 0 01.065-.063c2.332-2.013 3.327-4.61 3.327-8.683A3.781 3.781 0 018.5 1.155a3.781 3.781 0 013.777 3.777c0 4.07.995 6.666 3.328 8.684.023.02.044.04.065.062H1.33z" fill="#00C0FF"/></svg>
